X: 26923
T: Miss Admiral Gordon's
R: strathspey
M: 4/4
K: Gmajor
D|:G2 G2 G>D G<e|d<BA>G E2 E>D|G2 G2 G>D G<e|d>e g<B d2 de|
d>e g<B d<BA>G|A>B c/B/A/G/ E2 E>D|G2 G2 G>D G<e|d<B A>B G2 G D:|
|:B>dg<d e<dg<d|B>d c/B/A/G/ E2 ED|B>dg<d e<dg<d|B>c d/e/f/g/ d2 de|
g>fe>d e<dc>B|AB c/B/A/G/ E2 E>D|G2 G2 G>D G<e|d<B A>B G2 G D:|

